img/svg/binders.svg

<svg width="13" height="24" xmlns="http://www.w3.org/2000/svg"><path d="M6.016 0c-3.477 0-6 2.733-6 6.5V19c0 2.897 1.893 5 4.5 5s4.5-2.103 4.5-5V9.5c0-2.093-1.206-3.5-3-3.5s-3 1.407-3 3.5V17a.5.5 0 0 0 1 0V9.5c0-1.208.525-2.5 2-2.5s2 1.292 2 2.5V19c0 2.355-1.439 4-3.5 4s-3.5-1.645-3.5-4V6.5c0-3.187 2.103-5.5 5-5.5s5 2.313 5 5.5v9a.5.5 0 0 0 1 0v-9c0-3.767-2.524-6.5-6-6.5z" fill="#0067C5" fill-rule="nonzero"/></svg>

<?xml version="1.0" encoding="UTF-8" standalone="no"?>
<svg width="13px" height="24px" viewBox="0 0 13 24" version="1.1" xmlns="http://www.w3.org/2000/svg" xmlns:xlink="http://www.w3.org/1999/xlink">
    <!-- Generator: Sketch 48.1 (47250) - http://www.bohemiancoding.com/sketch -->
    <title>paperclip 2</title>
    <desc>Created with Sketch.</desc>
    <defs></defs>
    <g id="Se-planen" stroke="none" stroke-width="1" fill="none" fill-rule="evenodd">
        <g id="paperclip-2" fill="#0067C5" fill-rule="nonzero">
            <g id="Shape">
                <path d="M6.016,0 C2.539,0 0.016,2.733 0.016,6.5 L0.016,19 C0.016,21.897 1.909,24 4.516,24 C7.123,24 9.016,21.897 9.016,19 L9.016,9.5 C9.016,7.407 7.81,6 6.016,6 C4.222,6 3.016,7.407 3.016,9.5 L3.016,17 C3.016,17.276 3.24,17.5 3.516,17.5 C3.792,17.5 4.016,17.276 4.016,17 L4.016,9.5 C4.016,8.292 4.541,7 6.016,7 C7.491,7 8.016,8.292 8.016,9.5 L8.016,19 C8.016,21.355 6.577,23 4.516,23 C2.455,23 1.016,21.355 1.016,19 L1.016,6.5 C1.016,3.313 3.119,1 6.016,1 C8.913,1 11.016,3.313 11.016,6.5 L11.016,15.5 C11.016,15.776 11.24,16 11.516,16 C11.792,16 12.016,15.776 12.016,15.5 L12.016,6.5 C12.016,2.733 9.492,0 6.016,0 Z"></path>
            </g>
        </g>
    </g>
</svg>
